Yaru++/mimetypes/scalable/text-x-scala.svg

<svg height="256" viewBox="0 0 67.73 67.73" width="256" xmlns="http://www.w3.org/2000/svg" xmlns:xlink="http://www.w3.org/1999/xlink"><linearGradient id="a" gradientTransform="matrix(0 -.12639876 -.12639515 0 138.77832 175.09179)" gradientUnits="userSpaceOnUse" x1="494.34482" x2="4.413793" y1="386.29544" y2="169.65668"><stop offset="0" stop-color="#e8e8e8"/><stop offset="1" stop-color="#f5f5f5"/></linearGradient><linearGradient id="b" gradientUnits="userSpaceOnUse" x1="88" x2="488" y1="88" y2="488"><stop offset="0" stop-opacity=".588235"/><stop offset=".88" stop-opacity="0"/><stop offset="1"/></linearGradient><filter id="c" color-interpolation-filters="sRGB" height="1.087725" width="1.105998" x="-.052999" y="-.043863"><feGaussianBlur stdDeviation="8.4801079"/></filter><filter id="d" color-interpolation-filters="sRGB" height="1.021931" width="1.0265" x="-.01325" y="-.010966"><feGaussianBlur stdDeviation="2.120027"/></filter><g enable-background="new" fill="#fff" transform="matrix(.94845409 0 0 .94845409 -64.611706 -103.31712)"><path d="m189.84323 74c-70.59344 0-78.18921 7.250835-77.84323 77.98706v146.01294 146.01294c-.34598 70.73623 7.24979 77.98706 77.84323 77.98706h196.31354c70.59344 0 76.00668-7.27384 77.84323-77.98706v-146.01294-146.01294c0-70.737067-7.24979-77.98706-77.84323-77.98706z" fill="#000" filter="url(#d)" opacity=".1" transform="matrix(.1394745 0 0 .1394745 63.474084 102.56505)"/><path d="m189.84323 74c-70.59344 0-78.18921 7.250835-77.84323 77.98706v146.01294 146.01294c-.34598 70.73623 7.24979 77.98706 77.84323 77.98706h196.31354c70.59344 0 77.84323-7.24999 77.84323-77.98706v-146.01294-146.01294c0-70.737067-7.24979-77.98706-77.84323-77.98706z" fill="url(#b)" filter="url(#c)" opacity=".3" transform="matrix(.1394745 0 0 .1394745 63.474084 102.56505)"/><path d="m89.642735 112.04932c-10.069727 0-11.153219 1.02936-11.103866 11.07144v20.72874 20.72875c-.04935 10.04207 1.034139 11.07144 11.103866 11.07144h28.002945c10.06972 0 11.10386-1.02925 11.10386-11.07144v-20.72875-20.72874c0-10.0422-1.03414-11.07144-11.10386-11.07144z" fill="#000" opacity=".1"/><path d="m117.3316 112.60721c9.84599 0 10.9054 1.01131 10.85715 10.87721v20.36508 20.36508c.0483 9.8659-1.01116 10.87721-10.85715 10.87721h-27.380732c-9.845984 0-10.857146-1.01119-10.857146-10.87721v-20.36508-20.36508c0-9.86602 1.011162-10.87721 10.857146-10.87721z" fill="url(#a)"/><path d="m128.18862 160.58808-14.50372 14.50371h3.6465c9.84599 0 10.90547-1.01148 10.85722-10.87738z" fill="#fff"/><path d="m89.952446 112.60721c-9.845986 0-10.905474 1.01148-10.857219 10.87738v.5579c-.04825-9.8659 1.011233-10.87738 10.857219-10.87738h27.380584c9.84599 0 10.85722 1.01136 10.85722 10.87738v-.5579c0-9.86602-1.01123-10.87738-10.85722-10.87738z" fill="#fff" opacity=".3"/><path d="m89.953953 175.09179c-9.845988 0-10.905476-1.01148-10.857221-10.87738v-.5579c-.04825 9.8659 1.011233 10.87738 10.857221 10.87738h27.380587c9.84599 0 10.85722-1.01136 10.85722-10.87738v.5579c0 9.86602-1.01123 10.87738-10.85722 10.87738z" fill="#000" opacity=".2"/><path d="m103.64274 112.60721v62.48458h13.68866c9.84599 0 10.90547-1.01148 10.85722-10.87738v-20.36491-20.36491c.0482-9.8659-1.01123-10.87738-10.85722-10.87738z" fill="#fff" opacity=".2"/><path d="m79.093593 143.8495v20.36491c0 9.86602 1.011234 10.87738 10.857219 10.87738h27.380588c9.84599 0 10.90547-1.01148 10.85722-10.87738v-20.36491z" fill="#fff" opacity=".2"/><g enable-background="new" transform="matrix(.27491759 0 0 .27645023 61.928835 100.72576)"><path d="m103.03059 179.13765v-26.56518l97.40568 17.71012c-.26284 51.3668-19.29682 22.17334-19.29682 22.17334-11.78835-1.53157-61.71793-10.32474-78.10886-13.31828zm97.40568-26.56518-97.40568-17.71012v-26.56519l97.40568 17.71012z" fill="#501616"/><path d="m200.43627 90.587036-97.40568 17.710124v26.56519l97.40568-17.71013zm0 44.275314-97.40568 17.71012v26.56518l97.40568-17.71012zm0 44.2753-97.40568 17.71013v26.56518l97.40568-17.71012z" fill="#d92b1a"/></g></g></svg>

<?xml version="1.0" encoding="UTF-8" standalone="no"?>
<svg
   xmlns:dc="http://purl.org/dc/elements/1.1/"
   xmlns:cc="http://creativecommons.org/ns#"
   xmlns:rdf="http://www.w3.org/1999/02/22-rdf-syntax-ns#"
   xmlns:svg="http://www.w3.org/2000/svg"
   xmlns="http://www.w3.org/2000/svg"
   xmlns:xlink="http://www.w3.org/1999/xlink"
   xmlns:sodipodi="http://sodipodi.sourceforge.net/DTD/sodipodi-0.dtd"
   xmlns:inkscape="http://www.inkscape.org/namespaces/inkscape"
   height="256"
   viewBox="0 0 67.73 67.73"
   width="256"
   version="1.1"
   id="svg42"
   sodipodi:docname="8.svg"
   inkscape:version="0.92.5 (2060ec1f9f, 2020-04-08)">
  <metadata
     id="metadata48">
    <rdf:RDF>
      <cc:Work
         rdf:about="">
        <dc:format>image/svg+xml</dc:format>
        <dc:type
           rdf:resource="http://purl.org/dc/dcmitype/StillImage" />
        <dc:title></dc:title>
      </cc:Work>
    </rdf:RDF>
  </metadata>
  <defs
     id="defs46">
    <linearGradient
       gradientUnits="userSpaceOnUse"
       y2="169.65668"
       x2="4.4137931"
       y1="386.29544"
       x1="494.34482"
       id="linearGradient4226"
       xlink:href="#linearGradient4245"
       inkscape:collect="always"
       gradientTransform="matrix(0,-0.12639876,-0.12639515,0,138.77832,175.09179)" />
    <linearGradient
       id="linearGradient4245"
       inkscape:collect="always">
      <stop
         id="stop4241"
         offset="0"
         style="stop-color:#e8e8e8;stop-opacity:1" />
      <stop
         id="stop4243"
         offset="1"
         style="stop-color:#f5f5f5;stop-opacity:1" />
    </linearGradient>
    <linearGradient
       inkscape:collect="always"
       xlink:href="#linearGradient4360"
       id="linearGradient4358"
       x1="88"
       y1="88"
       x2="488"
       y2="488"
       gradientUnits="userSpaceOnUse" />
    <linearGradient
       id="linearGradient4360"
       inkscape:collect="always">
      <stop
         id="stop4362"
         offset="0"
         style="stop-color:#000000;stop-opacity:0.58823532" />
      <stop
         style="stop-color:#000000;stop-opacity:0"
         offset="0.88"
         id="stop4364" />
      <stop
         id="stop4366"
         offset="1"
         style="stop-color:#000000;stop-opacity:1" />
    </linearGradient>
    <filter
       inkscape:collect="always"
       style="color-interpolation-filters:sRGB"
       id="filter4380"
       x="-0.052999184"
       width="1.1059984"
       y="-0.043862626"
       height="1.0877253">
      <feGaussianBlur
         inkscape:collect="always"
         stdDeviation="8.4801079"
         id="feGaussianBlur4382" />
    </filter>
    <filter
       inkscape:collect="always"
       style="color-interpolation-filters:sRGB"
       id="filter4346"
       x="-0.013249796"
       width="1.0264996"
       y="-0.010965657"
       height="1.0219313">
      <feGaussianBlur
         inkscape:collect="always"
         stdDeviation="2.120027"
         id="feGaussianBlur4348" />
    </filter>
  </defs>
  <sodipodi:namedview
     pagecolor="#ffffff"
     bordercolor="#666666"
     borderopacity="1"
     objecttolerance="10"
     gridtolerance="10"
     guidetolerance="10"
     inkscape:pageopacity="0"
     inkscape:pageshadow="2"
     inkscape:window-width="1920"
     inkscape:window-height="1016"
     id="namedview44"
     showgrid="false"
     inkscape:zoom="3.4639785"
     inkscape:cx="127.33085"
     inkscape:cy="129.82524"
     inkscape:window-x="0"
     inkscape:window-y="27"
     inkscape:window-maximized="1"
     inkscape:current-layer="flowRoot907" />
  <linearGradient
     id="a"
     gradientTransform="matrix(0 -.11988342 .11987999 0 .362762 292.01605)"
     gradientUnits="userSpaceOnUse"
     x1="529.65515"
     x2="-35.310345"
     y1="401.58368"
     y2="119.09284">
    <stop
       offset="0"
       stop-color="#f2f2f2"
       id="stop2" />
    <stop
       offset="1"
       stop-color="#f9f9f9"
       id="stop4" />
  </linearGradient>
  <linearGradient
     id="b"
     gradientUnits="userSpaceOnUse"
     x1="88"
     x2="488"
     y1="88"
     y2="488">
    <stop
       offset="0"
       stop-opacity=".588235"
       id="stop7" />
    <stop
       offset=".88"
       stop-opacity="0"
       id="stop9" />
    <stop
       offset="1"
       id="stop11" />
  </linearGradient>
  <filter
     id="c"
     color-interpolation-filters="sRGB"
     height="1.087725"
     width="1.105998"
     x="-.052999"
     y="-.043863">
    <feGaussianBlur
       stdDeviation="8.4801079"
       id="feGaussianBlur14" />
  </filter>
  <filter
     id="d"
     color-interpolation-filters="sRGB"
     height="1.021931"
     width="1.0265"
     x="-.01325"
     y="-.010966">
    <feGaussianBlur
       stdDeviation="2.120027"
       id="feGaussianBlur17" />
  </filter>
  <g
     aria-label="Qt"
     transform="matrix(0.94845409,0,0,0.94845409,-64.611706,-103.31712)"
     style="font-style:normal;font-weight:normal;font-size:29.33333397px;line-height:2.25;font-family:sans-serif;letter-spacing:0px;word-spacing:0px;display:inline;fill:#ffffff;fill-opacity:1;stroke:none;enable-background:new"
     id="flowRoot907">
    <path
       style="color:#000000;display:inline;overflow:visible;visibility:visible;opacity:0.1;fill:#000000;fill-opacity:1;fill-rule:nonzero;stroke:none;stroke-width:2;marker:none;filter:url(#filter4346);enable-background:accumulate"
       d="M 189.84323,74 C 119.24979,74 111.65402,81.250835 112,151.98706 V 298 444.01294 C 111.65402,514.74917 119.24979,522 189.84323,522 H 386.15677 C 456.75021,522 462.16345,514.72616 464,444.01294 V 298 151.98706 C 464,81.249993 456.75021,74 386.15677,74 Z"
       id="rect4158-9"
       inkscape:connector-curvature="0"
       sodipodi:nodetypes="scccssscsss"
       transform="matrix(0.1394745,0,0,0.1394745,63.474084,102.56505)" />
    <path
       sodipodi:nodetypes="scccssscsss"
       inkscape:connector-curvature="0"
       id="path4350"
       d="M 189.84323,74 C 119.24979,74 111.65402,81.250835 112,151.98706 V 298 444.01294 C 111.65402,514.74917 119.24979,522 189.84323,522 H 386.15677 C 456.75021,522 464,514.75001 464,444.01294 V 298 151.98706 C 464,81.249993 456.75021,74 386.15677,74 Z"
       style="color:#000000;display:inline;overflow:visible;visibility:visible;opacity:0.3;fill:url(#linearGradient4358);fill-opacity:1;fill-rule:nonzero;stroke:none;stroke-width:2;marker:none;filter:url(#filter4380);enable-background:accumulate"
       transform="matrix(0.1394745,0,0,0.1394745,63.474084,102.56505)" />
    <path
       style="color:#000000;display:inline;overflow:visible;visibility:visible;opacity:0.1;fill:#000000;fill-opacity:1;fill-rule:nonzero;stroke:none;stroke-width:0.28460824;marker:none;enable-background:accumulate"
       d="m 89.642735,112.04932 c -10.069727,0 -11.153219,1.02936 -11.103866,11.07144 v 20.72874 20.72875 c -0.04935,10.04207 1.034139,11.07144 11.103866,11.07144 h 28.002945 c 10.06972,0 11.10386,-1.02925 11.10386,-11.07144 V 143.8495 123.12076 c 0,-10.0422 -1.03414,-11.07144 -11.10386,-11.07144 z"
       id="rect4158-7"
       inkscape:connector-curvature="0"
       sodipodi:nodetypes="scccssscsss" />
    <path
       style="color:#000000;display:inline;overflow:visible;visibility:visible;fill:url(#linearGradient4226);fill-opacity:1;fill-rule:nonzero;stroke:none;stroke-width:0.27894899;marker:none;enable-background:accumulate"
       d="m 117.3316,112.60721 c 9.84599,0 10.9054,1.01131 10.85715,10.87721 v 20.36508 20.36508 c 0.0483,9.8659 -1.01116,10.87721 -10.85715,10.87721 H 89.950868 c -9.845984,0 -10.857146,-1.01119 -10.857146,-10.87721 V 143.8495 123.48442 c 0,-9.86602 1.011162,-10.87721 10.857146,-10.87721 z"
       id="rect4158"
       inkscape:connector-curvature="0"
       sodipodi:nodetypes="scccssscsss" />
    <path
       style="color:#000000;display:inline;overflow:visible;visibility:visible;opacity:1;fill:#ffffff;fill-opacity:1;fill-rule:nonzero;stroke:none;stroke-width:0.27894899;marker:none;enable-background:accumulate"
       d="m 128.18862,160.58808 -14.50372,14.50371 h 3.6465 c 9.84599,0 10.90547,-1.01148 10.85722,-10.87738 z"
       id="rect4158-6"
       inkscape:connector-curvature="0" />
    <path
       style="color:#000000;display:inline;overflow:visible;visibility:visible;opacity:0.3;fill:#ffffff;fill-opacity:1;fill-rule:nonzero;stroke:none;stroke-width:0.27894899;marker:none;enable-background:accumulate"
       d="m 89.952446,112.60721 c -9.845986,0 -10.905474,1.01148 -10.857219,10.87738 v 0.5579 c -0.04825,-9.8659 1.011233,-10.87738 10.857219,-10.87738 h 27.380584 c 9.84599,0 10.85722,1.01136 10.85722,10.87738 v -0.5579 c 0,-9.86602 -1.01123,-10.87738 -10.85722,-10.87738 z"
       id="path931"
       inkscape:connector-curvature="0" />
    <path
       style="color:#000000;display:inline;overflow:visible;visibility:visible;opacity:0.2;fill:#000000;fill-opacity:1;fill-rule:nonzero;stroke:none;stroke-width:0.27894899;marker:none;enable-background:accumulate"
       d="m 89.953953,175.09179 c -9.845988,0 -10.905476,-1.01148 -10.857221,-10.87738 v -0.5579 c -0.04825,9.8659 1.011233,10.87738 10.857221,10.87738 h 27.380587 c 9.84599,0 10.85722,-1.01136 10.85722,-10.87738 v 0.5579 c 0,9.86602 -1.01123,10.87738 -10.85722,10.87738 z"
       id="path931-8"
       inkscape:connector-curvature="0" />
    <path
       style="color:#000000;display:inline;overflow:visible;visibility:visible;opacity:0.2;fill:#ffffff;fill-opacity:1;fill-rule:nonzero;stroke:none;stroke-width:0.27894899;marker:none;enable-background:accumulate"
       d="m 103.64274,112.60721 v 62.48458 h 13.68866 c 9.84599,0 10.90547,-1.01148 10.85722,-10.87738 V 143.8495 123.48459 c 0.0482,-9.8659 -1.01123,-10.87738 -10.85722,-10.87738 z"
       id="rect4158-3"
       inkscape:connector-curvature="0" />
    <path
       style="color:#000000;display:inline;overflow:visible;visibility:visible;opacity:0.2;fill:#ffffff;fill-opacity:1;fill-rule:nonzero;stroke:none;stroke-width:0.27894899;marker:none;enable-background:accumulate"
       d="m 79.093593,143.8495 v 20.36491 c 0,9.86602 1.011234,10.87738 10.857219,10.87738 H 117.3314 c 9.84599,0 10.90547,-1.01148 10.85722,-10.87738 V 143.8495 Z"
       id="rect4158-8"
       inkscape:connector-curvature="0" />
    <g
       transform="matrix(0.27491759,0,0,0.27645023,61.928835,100.72576)"
       style="display:inline;enable-background:new"
       id="g1631">
      <path
         inkscape:connector-curvature="0"
         d="m 103.03059,179.13765 v -26.56518 l 97.40568,17.71012 c -0.26284,51.3668 -19.29682,22.17334 -19.29682,22.17334 -11.78835,-1.53157 -61.71793,-10.32474 -78.10886,-13.31828 z m 97.40568,-26.56518 -97.40568,-17.71012 v -26.56519 l 97.40568,17.71012 z"
         style="opacity:1;fill:#501616;fill-opacity:1;stroke:none;stroke-width:4.42753077"
         id="path10-3"
         sodipodi:nodetypes="cccscccccc" />
      <path
         inkscape:connector-curvature="0"
         d="m 200.43627,90.587036 -97.40568,17.710124 v 26.56519 l 97.40568,-17.71013 z m 0,44.275314 -97.40568,17.71012 v 26.56518 l 97.40568,-17.71012 z m 0,44.2753 -97.40568,17.71013 v 26.56518 l 97.40568,-17.71012 z"
         style="opacity:1;fill:#d92b1a;fill-opacity:1;stroke:none;stroke-width:4.42753077"
         id="path10" />
    </g>
  </g>
</svg>
